assets/dribbble.svg

<svg xmlns="http://www.w3.org/2000/svg" fill="none" viewBox="0 0 28 28">
  <path fill="#2A2238" fill-rule="evenodd" d="M14 0C6.272 0 0 6.272 0 14s6.272 14 14 14c7.714 0 14-6.272 14-14S21.714 0 14 0Zm9.247 6.454c1.7235 2.09873 2.6775 4.7237 2.7038 7.4393-.3955-.0753-4.3435-.8803-8.3213-.3798-.091-.196-.168-.4095-.259-.6212-.2433-.5775-.5162-1.1691-.7892-1.7326 4.403-1.7902 6.4084-4.37145 6.6674-4.70745l-.0017.00175ZM14 2.065c3.0363 0 5.8152 1.1375 7.9275 3.0065-.2135.3045-2.0213 2.71775-6.272 4.312-1.96-3.598-4.13-6.545-4.4643-7 .9207-.21498 1.8634-.32186 2.8088-.3185ZM8.91275 3.1885c1.60245 2.22083 3.08275 4.52724 4.43445 6.909-5.5877 1.4875-10.5227 1.4578-11.0547 1.4578.38475-1.81003 1.1824-3.50667 2.33074-4.95766 1.14834-1.45098 2.61634-2.6171 4.28951-3.40739V3.1885Zm-6.8775 10.829V13.65c.51625.0175 6.3175.0928 12.28495-1.6993.3483.6668.6668 1.3511.9713 2.0336l-.4725.1365c-6.1635 1.9897-9.443 7.4252-9.71775 7.8819-1.97431-2.1917-3.06661-5.0371-3.066-7.987v.0018ZM14 25.9647c-2.6573.0042-5.23917-.8831-7.3325-2.5199.21-.441 2.64075-5.117 9.3817-7.4708.0315-.0157.0456-.0157.0771-.0297 1.1364 2.9336 1.9902 5.969 2.5497 9.065-1.477.6346-3.0684.9598-4.676.9554Zm6.6675-2.0492c-.1225-.7297-.7612-4.221-2.324-8.519 3.7503-.5915 7.0297.3798 7.4392.5163-.255 1.6146-.8413 3.159-1.7219 4.5363-.8805 1.3772-2.0365 2.5574-3.395 3.4664h.0017Z" clip-rule="evenodd"/>
</svg>

<svg width="28" height="28" viewBox="0 0 28 28" fill="none" xmlns="http://www.w3.org/2000/svg">
<path fill-rule="evenodd" clip-rule="evenodd" d="M14 0C6.272 0 0 6.272 0 14C0 21.728 6.272 28 14 28C21.714 28 28 21.728 28 14C28 6.272 21.714 0 14 0ZM23.247 6.454C24.9705 8.55273 25.9245 11.1777 25.9508 13.8933C25.5553 13.818 21.6073 13.013 17.6295 13.5135C17.5385 13.3175 17.4615 13.104 17.3705 12.8923C17.1272 12.3148 16.8543 11.7232 16.5813 11.1597C20.9843 9.3695 22.9897 6.78825 23.2487 6.45225L23.247 6.454ZM14 2.065C17.0363 2.065 19.8152 3.2025 21.9275 5.0715C21.714 5.376 19.9062 7.78925 15.6555 9.3835C13.6955 5.7855 11.5255 2.8385 11.1912 2.3835C12.1119 2.16852 13.0546 2.06164 14 2.065V2.065ZM8.91275 3.1885C10.5152 5.40933 11.9955 7.71574 13.3472 10.0975C7.7595 11.585 2.8245 11.5553 2.2925 11.5553C2.67725 9.74527 3.4749 8.04863 4.62324 6.59764C5.77158 5.14666 7.23958 3.98054 8.91275 3.19025V3.1885ZM2.03525 14.0175V13.65C2.5515 13.6675 8.35275 13.7428 14.3202 11.9507C14.6685 12.6175 14.987 13.3018 15.2915 13.9843L14.819 14.1208C8.6555 16.1105 5.376 21.546 5.10125 22.0027C3.12694 19.811 2.03464 16.9656 2.03525 14.0157V14.0175ZM14 25.9647C11.3427 25.9689 8.76083 25.0816 6.6675 23.4448C6.8775 23.0038 9.30825 18.3278 16.0492 15.974C16.0807 15.9583 16.0948 15.9583 16.1263 15.9443C17.2627 18.8779 18.1165 21.9133 18.676 25.0093C17.199 25.6439 15.6076 25.9691 14 25.9647V25.9647ZM20.6675 23.9155C20.545 23.1858 19.9063 19.6945 18.3435 15.3965C22.0938 14.805 25.3732 15.7763 25.7827 15.9128C25.5277 17.5274 24.9414 19.0718 24.0608 20.4491C23.1803 21.8263 22.0243 23.0065 20.6658 23.9155H20.6675Z" fill="#2A2238"/>
</svg>
